X:295
T: David Melech Yisrael [in D]
O:klezmer
M: C
L: 1/8
W: David, king of Israel, lives and is strong
K: D
[| "D"A4 | F4 | AA AA | F4 \
w: Da-vid me-lech Yis-ra-el,
| A4 "G"B4 | "D"A2 "A"G2 | "D"(F2 "A"E2) ||
w: chai, chai ve-ka-yam
|: "D"DD "A"EE | "D"DD "A"E2 | "D"D2 "G"G2 |1 "A"FE "D"F2 :|2 "A"FE "D"D2 |]
w: Da-vid me-lech Yis-ra-el, chai, chai ve-ka-yam ve-ka-yam





